X: 15
T: FROM THEE TO ME SHE TURNS HER EYES
B: "Old English Country Dances", Frank Kidson ed., William Reeves pub., London 1890
Z: 2010-9-26 John Chambers <jc:trillian.mit.edu>
M: 6/8
L: 1/8
K: G
d |\
g2d g2d | B>AB G2d | e2d c2B | A3- A2 || d |
d2G G2e | e2A A2f | f2B B2g | g2G G2d | dcB A2G | G3- G2d |
dBG ecA | fdB g2d | dBG ecA | fdB g2d | dcB A2G | G3- G2 |]


%%sep 1 1 500

%%sep 1 1 500

